!!!ONB: MCCC : IJH0450_03 : Extracted Monophonic Melody
!!!COM: Haydn, Joseph
!!!OPR: String Quartet in E-flat major
!!!OMV: 3
!!!SCT: Hob.III:80 ; Op.76 No.6
!!!ODT: 1796///
**kern
*thru
*k[b-e-]
*B-:
*clefF
*M4/4
4bb-
8b-
8dd
12..ff[
96ff]
32gg
32ff
32ee-
8dd
8r
=1
8gg
4g
16ee-
16cc
12..a[
96a]
32cc
32b-
32a
4b-
=2
4ddd
8bb-
8gg
8.ee
16ff
8gg
8r
=3
4ccc
8aa
8ff
8.dd
16ee-
8ff
8r
=4
16ee
16gg
16r
32gg
32ee
16bb-
16gg
16r
32gg
32ee
16ff
16cc
16cc
16cc
16cc
16cc
16cc
16cc
=5
16cc
16ff
16r
32aa
32ff
16ccc
16aa
16r
32aa
32ff
16gg
16cc
16cc
16cc
16cc
16cc
16cc
16cc
=6
16cc
16gg
16r
32gg
32ee
16bb-
16gg
16r
32gg
32ee
2ff[
=7
4ff]
16ff
16aa
16ccc
16fff
8.ddd
32ccc
32bb-
8aa
8gg
=8
8ff
8.r
16e
16r
16b-
16a
16f
16f
16f
16r
16e
16r
16bb-
=9
16r
16aa
16r
16ff
16r
16gg
16r
16ee
4ff
4r
=10
8.b-
16f
16.b-
32f
16.dd
32a
8.b-
16f
8b-
8r
=11
2aa-
8.gg
16aa-
8bb-
16eee-
16bb-
=12
8.ccc
32bb-
32aa-
8gg
24aa-
24ff
24dd
8ee-
16.r
32B-
16.e-
32B-
16.g
32d
=13
8.e-
16g
16.a-
32b-
16.cc
32dd
2gg
=14
8.ff#
16gg
8.aa
32bb-
32ccc
32bb-
32aa
32gg
32aa
4gg
8ff
=15
8.ee
16ddd-
8ddd-
16ccc
16bb-
16aa-
16gg
16.ff
32ccc
8ccc
16.bb-
32aa-
=16
16gg
16ff
8ee-
8gg
16r
32gg
32bb-
16bb-
16ff
16r
32bb-
32dd
16ff
16ee-
16r
32ccc
32ee-
=17
16ee-
16dd
16r
32bb-
32ff
16gg
16ee-
16cc
16b-
4f
4r
=18
4bb-
8b-
8dd
12..ff[
96ff]
32gg
32ff
32ee-
4dd
=19
4gg
8g
16ee-
16cc
12..a[
96a]
32cc
32b-
32a
4b-
=20
16a
16cc
16r
32cc
32a
16ee-
16cc
16r
32cc
32a
16b-
16f
16f
16f
16f
16f
16f
16f
=21
16f
16b-
16r
32dd
32b-
16ff
16dd
16r
32dd
32b-
16cc
16f
16f
16f
16f
16f
16f
16f
=22
16f
16cc
16r
32cc
32a
16ee-
16cc
16r
32ccc
32aa
2bb-
=23
4bb-[
32bb-]
32aa
32bb-]
32ccc
32ddd
32bb-
32aa
32bb-
8.gg
32ff
32ee-
8dd
8cc
=24
8b-
8.r
16cc
16r
16e-
16d
16B-
16B-
16B-
16r
16a
16r
16ee-
=25
16r
16dd
16r
16b-
16r
16cc
16r
16a
4b-
4r
==
*-
